packages/kaspersky-hexa-ui-icons/src/iconsSVGs/16/EveryNdays.svg

<svg width="16" height="16" viewBox="0 0 16 16" fill="none" xmlns="http://www.w3.org/2000/svg">
<path d="M2 3C2.55228 3 3 2.55228 3 2C3 1.44772 2.55228 1 2 1C1.44772 1 1 1.44772 1 2C1 2.55228 1.44772 3 2 3Z" fill="black"/>
<path d="M2 7C2.55228 7 3 6.55228 3 6C3 5.44772 2.55228 5 2 5C1.44772 5 1 5.44772 1 6C1 6.55228 1.44772 7 2 7Z" fill="black"/>
<path d="M3 10C3 10.5523 2.55228 11 2 11C1.44772 11 1 10.5523 1 10C1 9.44771 1.44772 9 2 9C2.55228 9 3 9.44771 3 10Z" fill="black"/>
<path d="M2 15C2.55228 15 3 14.5523 3 14C3 13.4477 2.55228 13 2 13C1.44772 13 1 13.4477 1 14C1 14.5523 1.44772 15 2 15Z" fill="black"/>
<g opacity="0.2">
<path d="M6 3C6.55228 3 7 2.55228 7 2C7 1.44772 6.55228 1 6 1C5.44772 1 5 1.44772 5 2C5 2.55228 5.44772 3 6 3Z" fill="black"/>
<path d="M6 7C6.55228 7 7 6.55228 7 6C7 5.44772 6.55228 5 6 5C5.44772 5 5 5.44772 5 6C5 6.55228 5.44772 7 6 7Z" fill="black"/>
<path d="M7 10C7 10.5523 6.55228 11 6 11C5.44772 11 5 10.5523 5 10C5 9.44771 5.44772 9 6 9C6.55228 9 7 9.44771 7 10Z" fill="black"/>
<path d="M6 15C6.55228 15 7 14.5523 7 14C7 13.4477 6.55228 13 6 13C5.44772 13 5 13.4477 5 14C5 14.5523 5.44772 15 6 15Z" fill="black"/>
<path d="M11 2C11 2.55228 10.5523 3 10 3C9.44771 3 9 2.55228 9 2C9 1.44772 9.44771 1 10 1C10.5523 1 11 1.44772 11 2Z" fill="black"/>
<path d="M10 7C10.5523 7 11 6.55228 11 6C11 5.44772 10.5523 5 10 5C9.44771 5 9 5.44772 9 6C9 6.55228 9.44771 7 10 7Z" fill="black"/>
<path d="M11 10C11 10.5523 10.5523 11 10 11C9.44771 11 9 10.5523 9 10C9 9.44771 9.44771 9 10 9C10.5523 9 11 9.44771 11 10Z" fill="black"/>
<path d="M10 15C10.5523 15 11 14.5523 11 14C11 13.4477 10.5523 13 10 13C9.44771 13 9 13.4477 9 14C9 14.5523 9.44771 15 10 15Z" fill="black"/>
<path d="M15 2C15 2.55228 14.5523 3 14 3C13.4477 3 13 2.55228 13 2C13 1.44772 13.4477 1 14 1C14.5523 1 15 1.44772 15 2Z" fill="black"/>
<path d="M14 7C14.5523 7 15 6.55228 15 6C15 5.44772 14.5523 5 14 5C13.4477 5 13 5.44772 13 6C13 6.55228 13.4477 7 14 7Z" fill="black"/>
<path d="M15 10C15 10.5523 14.5523 11 14 11C13.4477 11 13 10.5523 13 10C13 9.44771 13.4477 9 14 9C14.5523 9 15 9.44771 15 10Z" fill="black"/>
<path d="M14 15C14.5523 15 15 14.5523 15 14C15 13.4477 14.5523 13 14 13C13.4477 13 13 13.4477 13 14C13 14.5523 13.4477 15 14 15Z" fill="black"/>
</g>
</svg>

<svg xmlns="http://www.w3.org/2000/svg" width="16" height="16" fill="none" viewBox="0 0 16 16"><path fill="#000" fill-rule="evenodd" d="M2 3c.5523 0 1-.4477 1-1s-.4477-1-1-1-1 .4477-1 1 .4477 1 1 1m0 4c.5523 0 1-.4477 1-1s-.4477-1-1-1-1 .4477-1 1 .4477 1 1 1m1 3c0 .5523-.4477 1-1 1s-1-.4477-1-1 .4477-1 1-1 1 .4477 1 1m-1 5c.5523 0 1-.4477 1-1s-.4477-1-1-1-1 .4477-1 1 .4477 1 1 1"/></svg>
